www/assets/icons/fork_left.svg

<svg xmlns="http://www.w3.org/2000/svg" width="24" height="24" viewBox="0 0 24 24" fill='currentColor'><path d="M10.41 15.59 9 17l-4-4 4-4 1.41 1.41L8.83 12c1.51-.33 3.73.08 5.17 1.36V6.83l-1.59 1.59L11 7l4-4 4 4-1.41 1.41L16 6.83V21h-2v-4c-.73-2.58-3.07-3.47-5.17-3z"/></svg>

<svg width="24" height="24" viewBox="0 0 24 24" xmlns="http://www.w3.org/2000/svg" fill='currentColor'><path d="M10.41 15.59L9 17L5 13L9 9L10.41 10.41L8.83 12C10.34 11.67 12.56 12.08 14 13.36V6.83L12.41 8.42L11 7L15 3L19 7L17.59 8.41L16 6.83V21H14V17C13.27 14.42 10.93 13.53 8.83 14L10.41 15.59Z"/></svg>
